svgs/light/3.svg

<svg xmlns="http://www.w3.org/2000/svg" viewBox="0 0 320 512"><!--! Font Awesome Pro 6.0.0-alpha3 by @fontawesome - https://fontawesome.com License - https://fontawesome.com/license (Commercial License) --><path d="M320 352c0 70.59-57.42 128-128 128H93.09c-41.94 0-79.02-26.72-92.27-66.5c-2.797-8.375 1.734-17.44 10.11-20.25c8.422-2.812 17.44 1.75 20.23 10.12C40.08 430.1 64.95 448 93.09 448H192c52.94 0 96-43.06 96-96s-43.06-96-96-96H80C73.41 256 67.5 251.1 65.09 245.8c-2.391-6.125-.7813-13.09 4.047-17.56L247.1 64H16C7.156 64 0 56.84 0 48S7.156 32 16 32h272c6.594 0 12.5 4.031 14.91 10.19c2.391 6.125 .7813 13.09-4.047 17.56L120.9 224H192C262.6 224 320 281.4 320 352z"/></svg>

<svg xmlns="http://www.w3.org/2000/svg" viewBox="0 0 320 512"><!-- Font Awesome Pro 6.0.0-alpha2 by @fontawesome - https://fontawesome.com License - https://fontawesome.com/license (Commercial License) --><path d="M320 352C320 422.594 262.578 480 192 480H93.094C51.156 480 14.078 453.281 0.828 413.5C-1.969 405.125 2.562 396.062 10.938 393.25C19.359 390.438 28.375 395 31.172 403.375C40.078 430.062 64.953 448 93.094 448H192C244.938 448 288 404.938 288 352S244.938 256 192 256H80C73.406 256 67.5 251.969 65.094 245.812C62.703 239.688 64.312 232.719 69.141 228.25L247.078 64H16C7.156 64 0 56.844 0 48S7.156 32 16 32H288C294.594 32 300.5 36.031 302.906 42.188C305.297 48.312 303.688 55.281 298.859 59.75L120.922 224H192C262.578 224 320 281.406 320 352Z"/></svg>
